X:6006
T:Flowers Of The Forest, The
R:Air
C:Trad. (before 1615 Skene ms)
O:Scottish
M:6/8
L:1/8
Q:1/8=180
K:Dmix
"D"A3 A2B|"D"A2d d3-|"Bm"d2f g2f|"G"e2d B2d|"G"d3- d2B|"D"A3 A2B|
"D"A2d d3-|d2g "Bm"f3|"D"e>fe d3-|d3 "G"c3|"D"c2d B>cB|"Am"A3- A2f|
"C"g2f e2d|"G"B2d d3-|"D"d2B A3|"D"A2B A2d|"D"d3- d2g|"Bm"f3 e>fe|"D"d3- d3|

